X:1947
T:Fiddlers Three
O:england
R:Jig
M:6/8
L:1/8
K:D
A|"D"F2A dcB|AFA f2e|dAF DFA|"Em"BEE "A7"E2A|
"D"F2A dcB|AFA g2f|"A7"ecA Ace|"D"f[df][df] [d2f2]:|
|:f/g/|"D"a2f b2f|"A7"agf gfe|c2e a2g|"D"gfe f2g|
a2f b2f|"A7"agf gfe|c2e gfe|"D"f[df][df] [d2f2]:|
]


